X: 83
T:La Favourite Minuet. JaW.083
M:3/4
Q:1/4=100
S:James Winder Ms, Lancashire, 1835-41
R:Minuet
O:England
A:Wyresdale,Lancashire
H:1/8
Z:vmp.Chris Partington, Aug 2004
K:Bb
GAB2A2|G2e2d2|c2B2A2|G^FGABc|!
d2g2f2|e2d2c2|f2B2A2|B6:|!
b2a2g2|f2(edcB)|g2f2e2|d2cBAG|!
e2d2c2|B2ABGA|(^FG)(G3F/G/)|A=BB3(A/B/)|!
cde2d2|=ea^f4|g2B2A2|G6:|]
